svgs/sharp-solid/square-parking.svg

<svg xmlns="http://www.w3.org/2000/svg" viewBox="0 0 448 512"><!--! Font Awesome Pro 6.6.0 by @fontawesome - https://fontawesome.com License - https://fontawesome.com/license (Commercial License) Copyright 2024 Fonticons, Inc. --><path d="M448 32L0 32 0 480l448 0 0-448zM160 128l80 0c53 0 96 43 96 96l0 32-5.5 0c-13.2 37.3-48.7 64-90.5 64l-48 0 0 32 0 32-64 0 0-32 0-32 0-64 0-96 0-32 32 0zm80 128c17.7 0 32-14.3 32-32s-14.3-32-32-32l-48 0 0 64 48 0z"/></svg>

<svg xmlns="http://www.w3.org/2000/svg" viewBox="0 0 448 512"><!--! Font Awesome Pro 6.4.0 by @fontawesome - https://fontawesome.com License - https://fontawesome.com/license (Commercial License) Copyright 2023 Fonticons, Inc. --><path d="M448 32H0V480H448V32zM160 128h80c53 0 96 43 96 96s-43 96-96 96H192v32 32H128V352 320 256 160 128h32zm80 128c17.7 0 32-14.3 32-32s-14.3-32-32-32H192v64h48z"/></svg>
